X: 1014
T: A Theater Tune
%R: jig
B: Henry Playford "Apollo's Banquet", London 1687 (5th Edition)
F: https://archive.org/details/apollosbanquetco01rugg
Z: 2017 John Chambers <jc:trillian.mit.edu>
M: 6/4
L: 1/4
K: D
% - - - - - - - - - -
A |\
F2G AD2 | d3 e>de | fga gaf | e3- e2A |\
d>cd ede | f>ef efd | cde B2A | A3- A2 :|
|: A |\
A2e c2d | eA2 d2e | f>ef gaf | e3- e2a |\
a>ba a>ba | a>ba g>ag | fga e2d | d3- d2 |]
% - - - - - - - - - -

%%sep 1 1 500
%%sep 1 1 500

